public/images/investor.svg

<svg height="59" viewBox="0 0 58 59" width="58" xmlns="http://www.w3.org/2000/svg"><g fill="none" fill-rule="evenodd" opacity=".8"><g fill-rule="nonzero"><path d="m53 21h-15c0-.5522847-.4477153-1-1-1h-10c-.5522847 0-1 .4477153-1 1h-15c-.5522847 0-1 .4477153-1 1v8c0 .5522847.4477153 1 1 1h15.18c.4227483 1.1957287 1.5517451 1.9964356 2.82 2h6c1.2682549-.0035644 2.3972517-.8042713 2.82-2h15.18c.5522847 0 1-.4477153 1-1v-8c0-.5522847-.4477153-1-1-1zm-27 8h-14v-6h14zm10 1c0 .5522847-.4477153 1-1 1h-6c-.5522847 0-1-.4477153-1-1v-8h8zm16-1h-14v-6h14z" fill="#101527"/><path d="m56 14v30c0 2.209139-1.790861 4-4 4h-30c.020419-.3330206.020419-.6669794 0-1 0-.35 0-.69-.05-1h29.05c1.6568542 0 3-1.3431458 3-3v-28c0-1.6568542-1.3431458-3-3-3h-38c-1.6568542 0-3 1.3431458-3 3v21c-.67730247.056589-1.34727965.1805347-2 .37v-22.37c0-2.209139 1.790861-4 4-4h40c2.209139 0 4 1.790861 4 4z" fill="#fff"/><path d="m52 8h-12v-2.38c0-3.10384029-2.5161597-5.62-5.62-5.62h-4.76c-3.1038403 0-5.62 2.51615971-5.62 5.62v2.38h-12c-3.3137085 0-6 2.6862915-6 6v23.2c-2.51148263 1.2693012-4.43285601 3.4631081-5.36 6.12-.25606838.7084679-.43379408 1.4428439-.53 2.19-.00490247.0865973-.00490247.1734027 0 .26-.10041982.8135797-.10041982 1.6364203 0 2.45.13460863 1.2145081.47266345 2.3976999 1 3.5 1.82026702 3.8404332 5.69002365 6.2886944 9.94 6.2886944 4.2499763 0 8.119733-2.4482612 9.94-6.2886944.2446684-.5557283.4420344-1.1311004.59-1.72h30.42c3.3137085 0 6-2.6862915 6-6v-30c0-3.3137085-2.6862915-6-6-6zm-26-2.38c0-1.99927079 1.6207292-3.62 3.62-3.62h4.76c1.9992708 0 3.62 1.62072921 3.62 3.62v2.38h-12zm-15 50.38c-4.97056275 0-9-4.0294373-9-9s4.02943725-9 9-9c4.9705627 0 9 4.0294373 9 9s-4.0294373 9-9 9zm10.37-12.66c-1.4313908-4.0515359-5.0908999-6.8986886-9.37-7.29v-21.05c0-.5522847.4477153-1 1-1h38c.5522847 0 1 .4477153 1 1v28c0 .5522847-.4477153 1-1 1h-29.42c-.06-.22-.13-.44-.21-.66zm34.63.66c0 2.209139-1.790861 4-4 4h-30c.020419-.3330206.020419-.6669794 0-1 0-.35 0-.69-.05-1h29.05c1.6568542 0 3-1.3431458 3-3v-28c0-1.6568542-1.3431458-3-3-3h-38c-1.6568542 0-3 1.3431458-3 3v21c-.67730247.056589-1.34727965.1805347-2 .37v-22.37c0-2.209139 1.790861-4 4-4h40c2.209139 0 4 1.790861 4 4z" fill="#101527"/></g><path d="m10.5 45.5h1c1.3807118-.1380711 2.6119287.8692882 2.7499999 2.25s-.8692881 2.6119288-2.2499999 2.75v1c0 .5522847-.4477153 1-1 1s-1-.4477153-1-1v-1h-1c-.55228475 0-1-.4477153-1-1s.44771525-1 1-1h2.5c.2761424 0 .5-.2238576.5-.5s-.2238576-.5-.5-.5h-1c-1.38071184.1380711-2.61192871-.8692882-2.74999989-2.25s.86928807-2.6119288 2.24999989-2.75v-1c0-.5522847.4477153-1 1-1s1 .4477153 1 1v1h1c.5522847 0 1 .4477153 1 1s-.4477153 1-1 1h-2.5c-.2761424 0-.5.2238576-.5.5s.2238576.5.5.5z" fill="#101527"/></g></svg>

<?xml version="1.0" encoding="UTF-8"?>
<svg width="58px" height="59px" viewBox="0 0 58 59" version="1.1" xmlns="http://www.w3.org/2000/svg" xmlns:xlink="http://www.w3.org/1999/xlink">
    <title>Investor Group</title>
    <g id="🚧-Sign-up-process-(WIP)(Choosen-one)" stroke="none" stroke-width="1" fill="none" fill-rule="evenodd" opacity="0.8">
        <g id="1.2.1-Sign-up" transform="translate(-662.000000, -477.000000)">
            <g id="Briefcase" transform="translate(662.000000, 477.000000)">
                <path d="M53,21 L38,21 C38,20.4477153 37.5522847,20 37,20 L27,20 C26.4477153,20 26,20.4477153 26,21 L11,21 C10.4477153,21 10,21.4477153 10,22 L10,30 C10,30.5522847 10.4477153,31 11,31 L26.18,31 C26.6027483,32.1957287 27.7317451,32.9964356 29,33 L35,33 C36.2682549,32.9964356 37.3972517,32.1957287 37.82,31 L53,31 C53.5522847,31 54,30.5522847 54,30 L54,22 C54,21.4477153 53.5522847,21 53,21 Z M26,29 L12,29 L12,23 L26,23 L26,29 Z M36,30 C36,30.5522847 35.5522847,31 35,31 L29,31 C28.4477153,31 28,30.5522847 28,30 L28,22 L36,22 L36,30 Z M52,29 L38,29 L38,23 L52,23 L52,29 Z" id="Shape" fill="#101527" fill-rule="nonzero"></path>
                <path d="M56,14 L56,44 C56,46.209139 54.209139,48 52,48 L22,48 C22.020419,47.6669794 22.020419,47.3330206 22,47 C22,46.65 22,46.31 21.95,46 L51,46 C52.6568542,46 54,44.6568542 54,43 L54,15 C54,13.3431458 52.6568542,12 51,12 L13,12 C11.3431458,12 10,13.3431458 10,15 L10,36 C9.32269753,36.056589 8.65272035,36.1805347 8,36.37 L8,14 C8,11.790861 9.790861,10 12,10 L52,10 C54.209139,10 56,11.790861 56,14 Z" id="Path" fill="#FFFFFF" fill-rule="nonzero"></path>
                <path d="M52,8 L40,8 L40,5.62 C40,2.51615971 37.4838403,0 34.38,0 L29.62,0 C26.5161597,0 24,2.51615971 24,5.62 L24,8 L12,8 C8.6862915,8 6,10.6862915 6,14 L6,37.2 C3.48851737,38.4693012 1.56714399,40.6631081 0.64,43.32 C0.383931621,44.0284679 0.206205916,44.7628439 0.11,45.51 C0.105097531,45.5965973 0.105097531,45.6834027 0.11,45.77 C0.00958017806,46.5835797 0.00958017806,47.4064203 0.11,48.22 C0.244608628,49.4345081 0.582663448,50.6176999 1.11,51.72 C2.93026702,55.5604332 6.80002365,58.0086944 11.05,58.0086944 C15.2999763,58.0086944 19.169733,55.5604332 20.99,51.72 C21.2346684,51.1642717 21.4320344,50.5888996 21.58,50 L52,50 C55.3137085,50 58,47.3137085 58,44 L58,14 C58,10.6862915 55.3137085,8 52,8 Z M26,5.62 C26,3.62072921 27.6207292,2 29.62,2 L34.38,2 C36.3792708,2 38,3.62072921 38,5.62 L38,8 L26,8 L26,5.62 Z M11,56 C6.02943725,56 2,51.9705627 2,47 C2,42.0294373 6.02943725,38 11,38 C15.9705627,38 20,42.0294373 20,47 C20,51.9705627 15.9705627,56 11,56 Z M21.37,43.34 C19.9386092,39.2884641 16.2791001,36.4413114 12,36.05 L12,15 C12,14.4477153 12.4477153,14 13,14 L51,14 C51.5522847,14 52,14.4477153 52,15 L52,43 C52,43.5522847 51.5522847,44 51,44 L21.58,44 C21.52,43.78 21.45,43.56 21.37,43.34 Z M56,44 C56,46.209139 54.209139,48 52,48 L22,48 C22.020419,47.6669794 22.020419,47.3330206 22,47 C22,46.65 22,46.31 21.95,46 L51,46 C52.6568542,46 54,44.6568542 54,43 L54,15 C54,13.3431458 52.6568542,12 51,12 L13,12 C11.3431458,12 10,13.3431458 10,15 L10,36 C9.32269753,36.056589 8.65272035,36.1805347 8,36.37 L8,14 C8,11.790861 9.790861,10 12,10 L52,10 C54.209139,10 56,11.790861 56,14 L56,44 Z" id="Shape" fill="#101527" fill-rule="nonzero"></path>
                <path d="M10.5,45.5 L11.5,45.5 C12.8807118,45.3619289 14.1119287,46.3692882 14.2499999,47.75 C14.3880711,49.1307118 13.3807118,50.3619288 12,50.5 L12,51.5 C12,52.0522847 11.5522847,52.5 11,52.5 C10.4477153,52.5 10,52.0522847 10,51.5 L10,50.5 L9,50.5 C8.44771525,50.5 8,50.0522847 8,49.5 C8,48.9477153 8.44771525,48.5 9,48.5 L11.5,48.5 C11.7761424,48.5 12,48.2761424 12,48 C12,47.7238576 11.7761424,47.5 11.5,47.5 L10.5,47.5 C9.11928816,47.6380711 7.88807129,46.6307118 7.75000011,45.25 C7.61192893,43.8692882 8.61928818,42.6380712 10,42.5 L10,41.5 C10,40.9477153 10.4477153,40.5 11,40.5 C11.5522847,40.5 12,40.9477153 12,41.5 L12,42.5 L13,42.5 C13.5522847,42.5 14,42.9477153 14,43.5 C14,44.0522847 13.5522847,44.5 13,44.5 L10.5,44.5 C10.2238576,44.5 10,44.7238576 10,45 C10,45.2761424 10.2238576,45.5 10.5,45.5 Z" id="Path" fill="#101527"></path>
            </g>
        </g>
    </g>
</svg>
